dist/img/icons/ic_location.svg

<svg width="46" height="46" viewBox="0 0 46 46" fill="none" xmlns="http://www.w3.org/2000/svg">
<path d="M32.5275 15.2258C32.4242 14.8385 32.2143 14.4258 32.0591 14.0645C30.2014 9.59998 26.1424 8 22.8649 8C18.4774 8 13.6452 10.942 13 17.0061V18.2451C13 18.2968 13.0178 18.7612 13.0431 18.9935C13.4048 21.8836 15.6852 24.955 17.3883 27.845C19.2207 30.9414 21.122 33.9873 23.0056 37.032C24.1671 35.0451 25.3245 33.0321 26.4595 31.0966C26.7689 30.5286 27.128 29.961 27.4377 29.4188C27.6441 29.0578 28.0384 28.6969 28.2185 28.361C30.0508 25.0064 33 21.6258 33 18.2967V16.929C33.0001 16.5681 32.5527 15.3036 32.5275 15.2258ZM22.9452 21.4452C21.6555 21.4452 20.2439 20.8003 19.5471 19.0194C19.4433 18.7359 19.4516 18.1678 19.4516 18.1157V17.3157C19.4516 15.0454 21.3794 14.0129 23.0565 14.0129C25.1211 14.0129 26.7179 15.6647 26.7179 17.7294C26.7179 19.7939 25.0099 21.4452 22.9452 21.4452Z" fill="#FFC59E"/>
</svg>

<svg width="46" height="46" fill="none" xmlns="http://www.w3.org/2000/svg"><path d="M32.528 15.226c-.104-.388-.314-.8-.469-1.162C30.201 9.6 26.142 8 22.865 8c-4.388 0-9.22 2.942-9.865 9.006v1.24c0 .05.018.515.043.748.362 2.89 2.642 5.961 4.345 8.851 1.833 3.096 3.734 6.142 5.618 9.187 1.161-1.987 2.319-4 3.453-5.935.31-.568.669-1.136.979-1.678.206-.361.6-.722.78-1.058C30.051 25.006 33 21.626 33 18.297v-1.368c0-.36-.447-1.625-.472-1.703zm-9.583 6.22c-1.29 0-2.701-.646-3.398-2.427-.104-.283-.095-.851-.095-.903v-.8c0-2.27 1.927-3.303 3.604-3.303 2.065 0 3.662 1.652 3.662 3.716 0 2.065-1.708 3.716-3.773 3.716z" fill="#FFC59E"/></svg>
